src/ui/hero.svg

<svg width="300" height="255" viewBox="0 0 300 255" fill="none" xmlns="http://www.w3.org/2000/svg">
<g clip-path="url(#clip0_13190_20)">
<path d="M289.501 106.533C274.498 125.718 246.189 130.112 222.766 123.43C215.101 121.19 207.708 118.112 200.718 114.251C196.658 112.046 192.695 109.628 188.814 107.051C187.858 106.42 186.903 105.779 185.958 105.125C185.314 104.684 184.672 104.239 184.032 103.787C176.016 98.1477 168.314 91.9608 160.741 85.8095C141.837 70.4539 122.415 54.6256 99.189 47.2991C94.404 45.7904 88.2138 45.0846 85.2547 49.138C82.6874 52.6572 84.2543 57.6397 86.4267 61.4147C94.485 75.3976 109.112 84.2264 123.752 91.0155C138.392 97.8046 153.9 103.305 166.627 113.231C179.353 123.158 189.069 138.934 186.466 154.86C184.223 168.583 173.018 179.733 159.99 184.593C146.962 189.449 132.432 188.773 118.889 185.619C105.347 182.463 92.4906 176.956 79.4206 172.209C71.5405 169.344 61.2388 167.363 56.01 173.919C51.5942 179.458 54.1323 188.196 59.5098 192.807C64.8873 197.417 72.1654 198.961 79.1098 200.347C100.672 204.653 122.234 208.958 143.796 213.261C150.41 214.579 157.18 215.958 162.942 219.468C168.705 222.974 173.354 229.099 173.189 235.843C173.024 242.49 168.158 248.363 162.195 251.306C156.234 254.245 149.351 254.698 142.711 254.381C117.828 253.19 46.4885 213.656 29.3782 208.603C18.3835 205.359 6.36263 200.593 1.72639 190.11C-4.04615 177.059 5.45287 161.27 18.4191 155.31C31.3822 149.346 46.4108 150.667 60.5394 152.674C74.668 154.681 89.2627 157.236 103.016 153.422C116.769 149.608 129.369 137.176 128.013 122.97C126.831 110.609 115.697 101.295 103.98 97.1894C94.8087 93.9745 85.0507 93.1004 75.4159 91.6532C72.7416 91.255 70.0772 90.8082 67.4386 90.2579C60.6812 88.8421 54.0896 86.7263 47.7706 83.9447C41.1396 81.0319 34.84 77.4165 28.98 73.1605C24.306 69.7708 19.9381 65.9781 15.9263 61.8259C15.3144 61.1913 14.7089 60.5428 14.11 59.8801C13.5402 59.2456 12.9768 58.5981 12.4265 57.9376C5.26509 49.3808 -0.0251454 38.8427 1.56137 27.984C3.14441 17.1545 11.5848 8.13795 21.6341 3.80613C27.4422 1.30352 33.7068 0.183336 40.0491 0.0214599C44.6866 -0.0712236 49.3228 0.262568 53.8992 1.01862C75.0759 4.40508 94.4816 14.694 112.809 25.8343C131.134 36.9746 148.992 49.2028 168.912 57.1444C188.833 65.0893 211.509 68.4531 231.717 61.269C251.926 54.0882 268.528 34.4947 267.541 13.0719C280.944 24.6137 292.334 39.1211 297.378 56.0728C302.422 73.0245 300.395 92.5986 289.501 106.533Z" fill="#3F3D56"/>
<path d="M192.928 84.3932C194.229 84.3932 195.284 83.3383 195.284 82.037C195.284 80.7357 194.229 79.6808 192.928 79.6808C191.627 79.6808 190.572 80.7357 190.572 82.037C190.572 83.3383 191.627 84.3932 192.928 84.3932Z" fill="#00DF5E"/>
<path d="M276.132 54.5996C278.144 54.5996 279.775 52.9686 279.775 50.9567C279.775 48.9448 278.144 47.3138 276.132 47.3138C274.121 47.3138 272.49 48.9448 272.49 50.9567C272.49 52.9686 274.121 54.5996 276.132 54.5996Z" fill="#FF6584"/>
<path d="M37.2027 166.911C37.9461 166.911 38.5487 166.309 38.5487 165.565C38.5487 164.822 37.9461 164.219 37.2027 164.219C36.4594 164.219 35.8568 164.822 35.8568 165.565C35.8568 166.309 36.4594 166.911 37.2027 166.911Z" fill="#FF6584"/>
<path d="M75.8368 88.1892C75.8377 89.3567 75.6964 90.52 75.416 91.6533C72.7417 91.2551 70.0773 90.8083 67.4387 90.2579C60.6813 88.8422 54.0897 86.7264 47.7707 83.9448C48.7869 80.6639 50.9458 77.8561 53.8555 76.0311C56.7652 74.2061 60.2328 73.485 63.6289 73.9986C67.0249 74.5122 70.1242 76.2264 72.3642 78.8302C74.6042 81.4339 75.8363 84.7545 75.8368 88.1892V88.1892Z" fill="#FF6584"/>
<path d="M252.822 75.9673C253.582 75.9673 254.199 75.351 254.199 74.5907C254.199 73.8304 253.582 73.2141 252.822 73.2141C252.062 73.2141 251.446 73.8304 251.446 74.5907C251.446 75.351 252.062 75.9673 252.822 75.9673Z" fill="#F0F0F0"/>
<path d="M126.882 227.484C127.643 227.484 128.259 226.867 128.259 226.107C128.259 225.347 127.643 224.73 126.882 224.73C126.122 224.73 125.506 225.347 125.506 226.107C125.506 226.867 126.122 227.484 126.882 227.484Z" fill="#F0F0F0"/>
<path d="M146.631 246.585C147.391 246.585 148.008 245.969 148.008 245.208C148.008 244.448 147.391 243.832 146.631 243.832C145.871 243.832 145.255 244.448 145.255 245.208C145.255 245.969 145.871 246.585 146.631 246.585Z" fill="#F0F0F0"/>
<path d="M24.5764 192.195C25.3366 192.195 25.9529 191.578 25.9529 190.818C25.9529 190.058 25.3366 189.441 24.5764 189.441C23.8161 189.441 23.1998 190.058 23.1998 190.818C23.1998 191.578 23.8161 192.195 24.5764 192.195Z" fill="#F0F0F0"/>
<path d="M92.2407 166.618C93.001 166.618 93.6173 166.002 93.6173 165.242C93.6173 164.481 93.001 163.865 92.2407 163.865C91.4804 163.865 90.8641 164.481 90.8641 165.242C90.8641 166.002 91.4804 166.618 92.2407 166.618Z" fill="#F0F0F0"/>
<path d="M85.4419 29.9943C86.2022 29.9943 86.8185 29.3779 86.8185 28.6177C86.8185 27.8574 86.2022 27.2411 85.4419 27.2411C84.6817 27.2411 84.0653 27.8574 84.0653 28.6177C84.0653 29.3779 84.6817 29.9943 85.4419 29.9943Z" fill="#F0F0F0"/>
<path d="M168.646 137.804C169.407 137.804 170.023 137.188 170.023 136.427C170.023 135.667 169.407 135.051 168.646 135.051C167.886 135.051 167.27 135.667 167.27 136.427C167.27 137.188 167.886 137.804 168.646 137.804Z" fill="#F0F0F0"/>
<path d="M179.007 161.762C179.767 161.762 180.383 161.146 180.383 160.385C180.383 159.625 179.767 159.009 179.007 159.009C178.246 159.009 177.63 159.625 177.63 160.385C177.63 161.146 178.246 161.762 179.007 161.762Z" fill="#F0F0F0"/>
<path d="M54.9224 33.0119C54.9325 39.9624 53.2902 46.8158 50.1309 53.0069C49.7133 53.8227 49.2708 54.6246 48.8035 55.4124C44.177 63.2253 37.2551 69.4226 28.9801 73.1605C24.3061 69.7708 19.9382 65.9782 15.9264 61.8259C15.3145 61.1914 14.709 60.5428 14.1101 59.8802C13.5403 59.2456 12.9769 58.5981 12.4266 57.9376C5.26519 49.3808 -0.0250406 38.8427 1.56148 27.984C3.14451 17.1545 11.5849 8.13796 21.6342 3.80614C27.4423 1.30353 33.7069 0.183361 40.0492 0.0214844C45.0082 4.40091 48.9176 9.84065 51.4874 15.9372C51.8112 16.7045 52.109 17.4815 52.3907 18.2682C54.0709 23.002 54.9272 27.9888 54.9224 33.0119V33.0119Z" fill="#00DF5E"/>
<path d="M74.9951 35.2781C74.9951 42.0219 68.41 48.2768 56.4506 52.8968C54.058 53.8227 51.497 54.6612 48.8035 55.4123C38.7218 58.2225 26.7235 59.7798 14.1101 59.8801C13.5403 59.2456 12.9769 58.5981 12.4266 57.9376C12.5626 57.9408 12.6985 57.9408 12.8345 57.9408C26.5325 57.9408 39.528 56.2055 50.1309 53.0068C52.0895 52.4144 53.9674 51.7733 55.7512 51.0838C66.7459 46.8394 73.0525 41.0766 73.0525 35.2781C73.0525 29.4797 66.7458 23.7202 55.7512 19.4725C54.6634 19.0516 53.5433 18.6502 52.3907 18.2682C52.109 17.4814 51.8112 16.7044 51.4874 15.9371C53.2097 16.4746 54.8641 17.0487 56.4506 17.6595C68.41 22.2794 74.9951 28.5376 74.9951 35.2781Z" fill="#E4E4E4"/>
<path d="M14.8638 11.2167C15.624 11.2167 16.2404 10.6004 16.2404 9.84009C16.2404 9.07982 15.624 8.4635 14.8638 8.4635C14.1035 8.4635 13.4872 9.07982 13.4872 9.84009C13.4872 10.6004 14.1035 11.2167 14.8638 11.2167Z" fill="#F0F0F0"/>
<path d="M43.6778 19.958C44.4381 19.958 45.0544 19.3417 45.0544 18.5814C45.0544 17.8212 44.4381 17.2048 43.6778 17.2048C42.9175 17.2048 42.3012 17.8212 42.3012 18.5814C42.3012 19.3417 42.9175 19.958 43.6778 19.958Z" fill="#F0F0F0"/>
<path d="M28.7851 45.8894C36.1784 45.8894 42.1718 39.896 42.1718 32.5028C42.1718 25.1095 36.1784 19.1161 28.7851 19.1161C21.3919 19.1161 15.3985 25.1095 15.3985 32.5028C15.3985 39.896 21.3919 45.8894 28.7851 45.8894Z" fill="#F0F0F0"/>
<path opacity="0.3" d="M276.004 103.354C272.999 104.241 266.375 104.895 259.091 105.296C251.81 105.694 243.823 105.869 235.936 106.038C222.131 106.335 208.327 106.634 194.525 106.934C192.627 106.976 190.724 107.015 188.814 107.051C187.859 106.42 186.904 105.779 185.958 105.125C187.651 105.134 189.345 105.125 191.025 105.092C198.203 104.95 204.279 104.39 211.201 104.124C221.853 103.713 233.352 104.037 244.454 104.202C255.555 104.37 268.204 104.309 276.004 103.354Z" fill="#F0F0F0"/>
<path opacity="0.3" d="M64.1302 205.411L20.1254 168.752L62.8754 206.879C62.9582 207.018 63.073 207.136 63.2103 207.222C63.3477 207.308 63.5037 207.361 63.6652 207.375C63.8268 207.388 63.9894 207.364 64.1394 207.302C64.2895 207.241 64.4227 207.144 64.5281 207.021C64.6334 206.898 64.7079 206.751 64.7452 206.593C64.7826 206.435 64.7818 206.271 64.7429 206.114C64.704 205.956 64.6281 205.81 64.5216 205.688C64.415 205.566 64.2809 205.471 64.1302 205.411H64.1302Z" fill="#F0F0F0"/>
<path d="M30.7277 66.5784C31.4879 66.5784 32.1042 65.9621 32.1042 65.2018C32.1042 64.4415 31.4879 63.8252 30.7277 63.8252C29.9674 63.8252 29.3511 64.4415 29.3511 65.2018C29.3511 65.9621 29.9674 66.5784 30.7277 66.5784Z" fill="#F0F0F0"/>
<path d="M146.342 224.709L152.036 224.708L154.745 202.746L146.341 202.746L146.342 224.709Z" fill="#FFB6B6"/>
<path d="M144.889 222.849L146.492 222.849L152.749 220.305L156.103 222.849H156.103C157.999 222.849 159.816 223.602 161.156 224.942C162.496 226.282 163.249 228.1 163.249 229.995V230.227L144.89 230.228L144.889 222.849Z" fill="#2F2E41"/>
<path d="M103.701 224.709L98.0068 224.708L95.298 202.746L103.702 202.746L103.701 224.709Z" fill="#FFB6B6"/>
<path d="M105.153 230.228L86.7933 230.227V229.995C86.7935 228.1 87.5464 226.282 88.8865 224.942C90.2266 223.602 92.0442 222.849 93.9394 222.849H93.9398L97.2935 220.305L103.551 222.849L105.153 222.849L105.153 230.228Z" fill="#2F2E41"/>
<path d="M124.103 56.3939L118.337 60.784L103.022 64.8399C103.022 64.8399 108.51 103.354 105.92 105.944C103.33 108.534 105.666 108.603 105.145 111.968C104.625 115.333 102.551 124.216 102.551 124.216H148.261C148.261 124.216 148.629 118.695 146.376 117.499C144.123 116.304 148.453 110.724 146.612 109.791C144.77 108.858 147.36 100.764 147.36 100.764L152.973 74.2647L138.044 62.5838L135.773 57.1131L124.103 56.3939Z" fill="#00DF5E"/>
<path d="M131.296 90.8094C132.398 90.8094 133.291 89.9163 133.291 88.8146C133.291 87.7129 132.398 86.8198 131.296 86.8198C130.195 86.8198 129.302 87.7129 129.302 88.8146C129.302 89.9163 130.195 90.8094 131.296 90.8094Z" fill="#F2F2F2"/>
<path d="M102.551 124.216L100.666 172.753C100.666 172.753 92.5273 208.602 93.941 209.545C95.3547 210.487 95.9536 216.107 95.9536 216.107L103.965 217.049C103.965 217.049 103.965 213.279 105.85 211.866C107.735 210.452 125.17 144.008 125.17 144.008L142.18 208.25C142.18 208.25 142.606 211.866 144.02 211.866C145.433 211.866 145.905 217.049 145.905 217.049H153.916V211.866C153.916 211.866 157.515 210.724 156.102 206.955C154.688 203.185 148.261 124.216 148.261 124.216H102.551Z" fill="#2F2E41"/>
<path d="M130.09 53.5015C135.425 53.5015 139.75 49.1764 139.75 43.8411C139.75 38.5059 135.425 34.1808 130.09 34.1808C124.754 34.1808 120.429 38.5059 120.429 43.8411C120.429 49.1764 124.754 53.5015 130.09 53.5015Z" fill="#FFB6B6"/>
<path opacity="0.1" d="M146.611 87.2235L148.496 88.6374L149.439 82.0399L146.611 87.2235Z" fill="black"/>
<path d="M103.926 64.8024C103.926 64.8024 101.569 64.3312 100.156 68.5723C98.742 72.8135 93.5584 88.8355 93.5584 91.6629C93.5584 94.4903 125.84 106.966 125.84 106.966L122.481 95.1824L107.695 87.4218L103.926 64.8024Z" fill="#00DF5E"/>
<path d="M127.337 105.219C130.377 105.219 132.841 102.755 132.841 99.7149C132.841 96.6752 130.377 94.2111 127.337 94.2111C124.298 94.2111 121.833 96.6752 121.833 99.7149C121.833 102.755 124.298 105.219 127.337 105.219Z" fill="#FFB6B6"/>
<path opacity="0.1" d="M107.265 81.5847L107.696 87.4217L121.368 94.598L109.207 86.441L107.265 81.5847Z" fill="black"/>
<path d="M140.133 82.4169H139.956V77.558C139.956 77.1887 139.883 76.823 139.742 76.4818C139.6 76.1406 139.393 75.8306 139.132 75.5694C138.871 75.3083 138.561 75.1011 138.22 74.9598C137.878 74.8185 137.513 74.7457 137.143 74.7457H126.849C126.48 74.7457 126.114 74.8185 125.773 74.9598C125.432 75.1011 125.122 75.3083 124.86 75.5694C124.599 75.8305 124.392 76.1406 124.251 76.4818C124.109 76.823 124.037 77.1887 124.037 77.558V104.215C124.037 104.584 124.109 104.95 124.251 105.291C124.392 105.632 124.599 105.942 124.86 106.203C125.122 106.464 125.432 106.672 125.773 106.813C126.114 106.954 126.48 107.027 126.849 107.027H137.143C137.513 107.027 137.878 106.954 138.22 106.813C138.561 106.672 138.871 106.464 139.132 106.203C139.393 105.942 139.6 105.632 139.742 105.291C139.883 104.95 139.956 104.584 139.956 104.215V85.8757H140.133V82.4169Z" fill="#F0F0F0"/>
<path d="M152.973 74.2646C152.973 74.2646 154.387 75.2071 155.329 79.4483C156.272 83.6894 162.398 99.7114 160.042 103.481C157.686 107.251 156.99 111.275 148.979 105.62L137.894 95.4703L145.905 87.9305L149.203 90.2867L152.973 74.2646Z" fill="#00DF5E"/>
<path d="M132.122 86.6265C133.423 86.6265 134.478 85.5717 134.478 84.2704C134.478 82.9691 133.423 81.9142 132.122 81.9142C130.821 81.9142 129.766 82.9691 129.766 84.2704C129.766 85.5717 130.821 86.6265 132.122 86.6265Z" fill="#00DF5E"/>
<path d="M138.943 94.9361C141.982 94.9361 144.447 92.4719 144.447 89.4323C144.447 86.3926 141.982 83.9285 138.943 83.9285C135.903 83.9285 133.439 86.3926 133.439 89.4323C133.439 92.4719 135.903 94.9361 138.943 94.9361Z" fill="#FFB6B6"/>
<path opacity="0.1" d="M107.005 99.2012L122.805 106.19L106.566 103.016L107.005 99.2012Z" fill="black"/>
<path d="M120.343 45.7662L119.017 40.7183C118.671 39.4012 118.322 38.0575 118.4 36.6979C118.477 35.3383 119.054 33.9353 120.2 33.1987C121.345 32.4622 123.094 32.6361 123.831 33.7813C123.971 31.9528 125.634 30.5463 127.399 30.0481C129.164 29.5498 131.038 29.7469 132.869 29.8309C134.701 29.915 136.635 29.8563 138.216 28.9272C138.336 29.2887 138.329 29.6807 138.194 30.0371C138.059 30.3934 137.805 30.6922 137.475 30.8831C137.868 30.9904 138.287 30.9443 138.647 30.7543C139.008 30.5642 139.282 30.2443 139.416 29.8594C139.428 30.9184 139.037 31.9422 138.321 32.7231C139.004 32.3846 139.787 32.3121 140.52 32.5196C141.253 32.7271 141.882 33.1998 142.286 33.8458C143.093 35.2446 142.641 37.0014 142.169 38.5457L139.746 46.472C139.378 45.2671 139.309 43.995 139.112 42.7507C138.916 41.5064 138.566 40.2357 137.745 39.2807C136.923 38.3256 135.528 37.7724 134.361 38.2467C133.706 38.5127 133.207 39.0525 132.616 39.4399C131.403 40.2348 129.86 40.3488 128.419 40.187C126.978 40.0253 125.574 39.6149 124.133 39.451C123.231 39.3484 122.224 39.3756 121.543 39.9765C121.075 40.4629 120.766 41.0802 120.657 41.7465C120.335 43.0745 120.209 44.4422 120.282 45.8066" fill="#2F2E41"/>
</g>
<defs>
<clipPath id="clip0_13190_20">
<rect width="300" height="254.468" fill="white"/>
</clipPath>
</defs>
</svg>

<svg xmlns="http://www.w3.org/2000/svg" width="300" height="255" fill="none">
  <g clip-path="url(#a)">
    <path fill="#3F3D56" d="M289.501 106.533c-15.003 19.185-43.312 23.579-66.735 16.897a108.604 108.604 0 0 1-22.048-9.179c-4.06-2.205-8.023-4.623-11.904-7.2a156.845 156.845 0 0 1-2.856-1.926c-.644-.441-1.286-.886-1.926-1.338-8.016-5.64-15.718-11.826-23.291-17.978-18.904-15.355-38.326-31.183-61.552-38.51-4.785-1.509-10.975-2.214-13.934 1.839-2.568 3.52-1 8.502 1.172 12.277 8.058 13.983 22.685 22.811 37.325 29.6 14.64 6.79 30.148 12.29 42.875 22.216 12.726 9.927 22.442 25.703 19.839 41.629-2.243 13.723-13.448 24.873-26.476 29.733-13.028 4.856-27.558 4.18-41.101 1.026-13.542-3.156-26.398-8.663-39.468-13.41-7.88-2.865-18.182-4.846-23.411 1.71-4.416 5.539-1.878 14.277 3.5 18.888 5.377 4.61 12.655 6.154 19.6 7.54 21.562 4.306 43.124 8.611 64.686 12.914 6.614 1.318 13.384 2.697 19.146 6.207 5.763 3.506 10.412 9.631 10.247 16.375-.165 6.647-5.031 12.52-10.994 15.463-5.961 2.939-12.844 3.392-19.484 3.075-24.883-1.191-96.223-40.725-113.333-45.778-10.994-3.244-23.015-8.01-27.652-18.493-5.772-13.051 3.727-28.84 16.693-34.8 12.963-5.964 27.992-4.643 42.12-2.636 14.129 2.007 28.724 4.562 42.477.748 13.753-3.814 26.353-16.246 24.997-30.452-1.182-12.361-12.316-21.675-24.033-25.78-9.171-3.215-18.93-4.09-28.564-5.537-2.674-.398-5.339-.845-7.977-1.395a99.422 99.422 0 0 1-19.668-6.313A101.315 101.315 0 0 1 28.98 73.16a98.836 98.836 0 0 1-13.054-11.335 69.345 69.345 0 0 1-3.5-3.888C5.267 49.38-.024 38.843 1.562 27.984 3.144 17.154 11.585 8.138 21.634 3.806 27.442 1.304 33.707.183 40.05.021a75.692 75.692 0 0 1 13.85.998c21.177 3.386 40.583 13.675 58.91 24.815 18.325 11.14 36.183 23.369 56.103 31.31 19.921 7.945 42.597 11.31 62.805 4.125 20.209-7.18 36.811-26.774 35.824-48.197 13.403 11.542 24.793 26.05 29.837 43 5.044 16.953 3.017 36.527-7.877 50.461Z"/>
    <path fill="#00DF5E" d="M192.928 84.393a2.356 2.356 0 1 0 0-4.712 2.356 2.356 0 0 0 0 4.712Z"/>
    <path fill="#FF6584" d="M276.132 54.6a3.643 3.643 0 1 0 0-7.286 3.643 3.643 0 0 0 0 7.286ZM37.203 166.911a1.346 1.346 0 1 0 0-2.691 1.346 1.346 0 0 0 0 2.691ZM75.837 88.19c0 1.167-.14 2.33-.421 3.463-2.674-.398-5.339-.845-7.977-1.395a99.415 99.415 0 0 1-19.668-6.313 14.355 14.355 0 0 1 28.066 4.244Z"/>
    <path fill="#F0F0F0" d="M252.822 75.967a1.377 1.377 0 1 0 0-2.754 1.377 1.377 0 0 0 0 2.754ZM126.882 227.484a1.377 1.377 0 1 0 0-2.754 1.377 1.377 0 0 0 0 2.754ZM146.631 246.585a1.377 1.377 0 1 0 0-2.754 1.377 1.377 0 0 0 0 2.754ZM24.576 192.195a1.377 1.377 0 1 0 0-2.754 1.377 1.377 0 0 0 0 2.754ZM92.24 166.618a1.376 1.376 0 1 0 .001-2.752 1.376 1.376 0 0 0 0 2.752ZM85.442 29.994a1.377 1.377 0 1 0 0-2.753 1.377 1.377 0 0 0 0 2.753ZM168.646 137.804a1.376 1.376 0 1 0 .001-2.753 1.376 1.376 0 0 0-.001 2.753ZM179.007 161.762a1.376 1.376 0 1 0 0-2.752 1.376 1.376 0 0 0 0 2.752Z"/>
    <path fill="#00DF5E" d="M54.922 33.012a43.85 43.85 0 0 1-4.791 19.995A44.17 44.17 0 0 1 28.98 73.16a98.829 98.829 0 0 1-13.055-11.335 69.492 69.492 0 0 1-3.5-3.888C5.267 49.38-.024 38.843 1.562 27.984 3.145 17.154 11.585 8.138 21.634 3.806 27.442 1.304 33.707.183 40.05.021a44.072 44.072 0 0 1 12.342 18.247 43.952 43.952 0 0 1 2.531 14.744Z"/>
    <path fill="#E4E4E4" d="M74.995 35.278c0 6.744-6.585 12.999-18.544 17.619a83.072 83.072 0 0 1-7.648 2.515c-10.081 2.81-22.08 4.368-34.693 4.468a69.345 69.345 0 0 1-1.683-1.942c.136.003.271.003.408.003 13.697 0 26.693-1.736 37.296-4.934a79.232 79.232 0 0 0 5.62-1.923c10.995-4.245 17.301-10.007 17.301-15.806 0-5.798-6.306-11.558-17.3-15.805a72.64 72.64 0 0 0-3.361-1.205 45.003 45.003 0 0 0-.904-2.33 80.868 80.868 0 0 1 4.964 1.722c11.959 4.62 18.544 10.878 18.544 17.618Z"/>
    <path fill="#F0F0F0" d="M14.864 11.217a1.377 1.377 0 1 0 0-2.754 1.377 1.377 0 0 0 0 2.754ZM43.678 19.958a1.377 1.377 0 1 0 0-2.753 1.377 1.377 0 0 0 0 2.753ZM28.785 45.89c7.393 0 13.387-5.994 13.387-13.387 0-7.393-5.994-13.387-13.387-13.387-7.393 0-13.386 5.994-13.386 13.387 0 7.393 5.993 13.386 13.386 13.386Z"/>
    <path fill="#F0F0F0" d="M276.004 103.354c-3.005.887-9.629 1.541-16.913 1.942-7.281.398-15.268.573-23.155.742-13.805.297-27.609.596-41.411.896-1.898.042-3.801.081-5.711.117-.955-.631-1.91-1.272-2.856-1.926 1.693.009 3.387 0 5.067-.033 7.178-.142 13.254-.702 20.176-.968 10.652-.411 22.151-.087 33.253.078 11.101.168 23.75.107 31.55-.848ZM64.13 205.411l-44.005-36.659 42.75 38.127a1.022 1.022 0 0 0 1.653.142 1.018 1.018 0 0 0-.398-1.61Z" opacity=".3"/>
    <path fill="#F0F0F0" d="M30.728 66.578a1.377 1.377 0 1 0 0-2.753 1.377 1.377 0 0 0 0 2.753Z"/>
    <path fill="#FFB6B6" d="m146.342 224.709 5.694-.001 2.709-21.962h-8.404l.001 21.963Z"/>
    <path fill="#2F2E41" d="M144.889 222.849h1.603l6.257-2.544 3.354 2.544a7.145 7.145 0 0 1 7.146 7.146v.232l-18.359.001-.001-7.379Z"/>
    <path fill="#FFB6B6" d="m103.701 224.709-5.694-.001-2.709-21.962h8.404l-.001 21.963Z"/>
    <path fill="#2F2E41" d="m105.153 230.228-18.36-.001v-.232a7.147 7.147 0 0 1 7.146-7.146l3.355-2.544 6.257 2.544h1.602v7.379Z"/>
    <path fill="#00DF5E" d="m124.103 56.394-5.766 4.39-15.315 4.056s5.488 38.514 2.898 41.104c-2.59 2.59-.254 2.659-.775 6.024-.52 3.365-2.594 12.248-2.594 12.248h45.71s.368-5.521-1.885-6.717c-2.253-1.195 2.077-6.775.236-7.708-1.842-.933.748-9.027.748-9.027l5.613-26.5-14.929-11.68-2.271-5.47-11.67-.72Z"/>
    <path fill="#F2F2F2" d="M131.296 90.81a1.995 1.995 0 1 0 0-3.99 1.995 1.995 0 0 0 0 3.99Z"/>
    <path fill="#2F2E41" d="m102.551 124.216-1.885 48.537s-8.139 35.849-6.725 36.792c1.414.942 2.013 6.562 2.013 6.562l8.011.942s0-3.77 1.885-5.183c1.885-1.414 19.32-67.858 19.32-67.858l17.01 64.242s.426 3.616 1.84 3.616c1.413 0 1.885 5.183 1.885 5.183h8.011v-5.183s3.599-1.142 2.186-4.911c-1.414-3.77-7.841-82.739-7.841-82.739h-45.71Z"/>
    <path fill="#FFB6B6" d="M130.09 53.502c5.335 0 9.66-4.326 9.66-9.66 0-5.336-4.325-9.661-9.66-9.661-5.336 0-9.661 4.325-9.661 9.66s4.325 9.66 9.661 9.66Z"/>
    <path fill="#000" d="m146.611 87.224 1.885 1.413.943-6.597-2.828 5.183Z" opacity=".1"/>
    <path fill="#00DF5E" d="M103.926 64.802s-2.357-.47-3.77 3.77c-1.414 4.242-6.598 20.263-6.598 23.09 0 2.828 32.282 15.304 32.282 15.304l-3.359-11.784-14.786-7.76-3.769-22.62Z"/>
    <path fill="#FFB6B6" d="M127.337 105.219a5.504 5.504 0 1 0 0-11.007 5.504 5.504 0 0 0 0 11.007Z"/>
    <path fill="#000" d="m107.265 81.585.431 5.837 13.672 7.176-12.161-8.157-1.942-4.856Z" opacity=".1"/>
    <path fill="#F0F0F0" d="M140.133 82.417h-.177v-4.859a2.818 2.818 0 0 0-.824-1.989 2.811 2.811 0 0 0-1.989-.823h-10.294a2.812 2.812 0 0 0-2.812 2.812v26.657a2.8 2.8 0 0 0 .823 1.988 2.824 2.824 0 0 0 1.989.824h10.294a2.823 2.823 0 0 0 1.989-.824 2.818 2.818 0 0 0 .824-1.988v-18.34h.177v-3.458Z"/>
    <path fill="#00DF5E" d="M152.973 74.265s1.414.942 2.356 5.183c.943 4.241 7.069 20.263 4.713 24.033-2.356 3.77-3.052 7.794-11.063 2.139l-11.085-10.15 8.011-7.54 3.298 2.357 3.77-16.022ZM132.122 86.626a2.356 2.356 0 1 0 0-4.712 2.356 2.356 0 0 0 0 4.712Z"/>
    <path fill="#FFB6B6" d="M138.943 94.936a5.504 5.504 0 1 0 0-11.009 5.504 5.504 0 0 0 0 11.01Z"/>
    <path fill="#000" d="m107.005 99.201 15.8 6.989-16.239-3.174.439-3.815Z" opacity=".1"/>
    <path fill="#2F2E41" d="m120.343 45.766-1.326-5.048c-.346-1.317-.695-2.66-.617-4.02.077-1.36.654-2.763 1.8-3.5 1.145-.736 2.894-.562 3.631.583.14-1.828 1.803-3.235 3.568-3.733 1.765-.498 3.639-.301 5.47-.217 1.832.084 3.766.025 5.347-.904a1.658 1.658 0 0 1-.741 1.956 1.605 1.605 0 0 0 1.941-1.024 4.167 4.167 0 0 1-1.095 2.864 3.068 3.068 0 0 1 3.965 1.123c.807 1.399.355 3.155-.117 4.7l-2.423 7.926c-.368-1.205-.437-2.477-.634-3.721-.196-1.245-.546-2.515-1.367-3.47-.822-.955-2.217-1.509-3.384-1.034-.655.266-1.154.806-1.745 1.193-1.213.795-2.756.909-4.197.747-1.441-.162-2.845-.572-4.286-.736-.902-.103-1.909-.075-2.59.526a3.328 3.328 0 0 0-.886 1.77 14.045 14.045 0 0 0-.375 4.06"/>
  </g>
  <defs>
    <clipPath id="a">
      <path fill="#fff" d="M0 0h300v254.468H0z"/>
    </clipPath>
  </defs>
</svg>
